X: 34693
T: Road To Errogie, The
R: reel
M: 4/4
K: Bmixolydian
FB B/B/B cBcd|fB B/B/B cdfB|g3g fdBd|cBcd cBGB|
FB B/B/B cBcd|fB B/B/B cdfB|g3g fdBd|1 cBcd B2BG:|2 cBcd Bcdf||
fb2 b-b2c'b|d'2d'c' b2bf|fg2f b2fg-|gfbf gfdf|
fb2 b-b2c'b|d'2d'c' b2bf|fg g/g/g fdBd|cBcd Bcdf|
fb2 b-b2c'b|d'2d'c' b2bf|fg2f b2fg-|gfbf gfdB|
FB B/B/B cBcd|fB B/B/B cdfB|g3g fdBd|cBcd B2B,2||

